X: 12790
T: Fear A' Bhàta
R: waltz
M: 3/4
K: Gmajor
D3/2E/|G2d2d3/2D/|E2G2G3/2D/|E2G2G3/2D/|
B2e2{B}d3/2c/|B2d3/2c/ A2|{GA}G4:|
|:B3/2A/|G4{GA}B3/2D/|E2G2e3/2d/|{B}d4d3/2A/|
E2G2B3/2A/|B2d3/2c/ A2|{GA}G4:|

